src/assets/outline/Support24.svg

<svg width="24" height="24" viewBox="0 0 24 24"  xmlns="http://www.w3.org/2000/svg">
<path d="M12 22.7498C11.3 22.7498 10.59 22.4797 10.06 21.9497L8.35001 20.2598C7.92001 19.8398 7.35999 19.6097 6.75999 19.6097H6C3.93 19.6097 2.25 17.9398 2.25 15.8898V4.97974C2.25 2.92974 3.93 1.25977 6 1.25977H18C20.07 1.25977 21.75 2.92974 21.75 4.97974V15.8898C21.75 17.9398 20.07 19.6097 18 19.6097H17.24C16.64 19.6097 16.07 19.8398 15.65 20.2598L13.94 21.9497C13.41 22.4797 12.7 22.7498 12 22.7498ZM6 2.74976C4.76 2.74976 3.75 3.74973 3.75 4.96973V15.8798C3.75 17.1098 4.76 18.0997 6 18.0997H6.75999C7.75999 18.0997 8.7 18.4897 9.41 19.1897L11.12 20.8798C11.61 21.3598 12.4 21.3598 12.89 20.8798L14.6 19.1897C15.31 18.4897 16.25 18.0997 17.25 18.0997H18C19.24 18.0997 20.25 17.0998 20.25 15.8798V4.96973C20.25 3.73973 19.24 2.74976 18 2.74976H6Z" />
<path d="M10.3802 14.51H7.70023C7.26023 14.51 6.85023 14.2999 6.59023 13.9399C6.34023 13.5999 6.28022 13.18 6.40022 12.78C6.75022 11.71 7.61022 11.13 8.37022 10.61C9.17022 10.07 9.62022 9.73002 9.62022 9.15002C9.62022 8.63002 9.20022 8.20996 8.68022 8.20996C8.16022 8.20996 7.74023 8.63002 7.74023 9.15002C7.74023 9.56002 7.40023 9.90002 6.99023 9.90002C6.58023 9.90002 6.24023 9.56002 6.24023 9.15002C6.24023 7.81002 7.33022 6.70996 8.68022 6.70996C10.0302 6.70996 11.1202 7.80002 11.1202 9.15002C11.1202 10.56 10.0602 11.28 9.21024 11.86C8.68024 12.22 8.18022 12.56 7.93022 13.01H10.3702C10.7802 13.01 11.1202 13.35 11.1202 13.76C11.1202 14.17 10.7902 14.51 10.3802 14.51Z" />
<path d="M16.0399 14.5099C15.6299 14.5099 15.2899 14.1699 15.2899 13.7599V13.0699H13.3299C13.3299 13.0699 13.3299 13.0699 13.3199 13.0699C12.8299 13.0699 12.3799 12.81 12.1299 12.39C11.8799 11.96 11.8799 11.4299 12.1299 11.0099C12.8099 9.83995 13.5999 8.50991 14.3199 7.34991C14.6399 6.83991 15.2499 6.60996 15.8199 6.76996C16.3899 6.93996 16.7899 7.45999 16.7799 8.05999V11.5799H16.9999C17.4099 11.5799 17.7499 11.9199 17.7499 12.3299C17.7499 12.7399 17.4099 13.0799 16.9999 13.0799H16.7899V13.77C16.7899 14.18 16.4599 14.5099 16.0399 14.5099ZM15.2899 8.63995C14.6999 9.59995 14.0899 10.6299 13.5399 11.5699H15.2899V8.63995Z" />
</svg>

<?xml version="1.0" encoding="UTF-8"?>
<svg width="24" height="24" viewBox="0 0 24 24" xmlns="http://www.w3.org/2000/svg">
 <path d="m12 22.75c-0.7 0-1.41-0.2701-1.94-0.8001l-1.71-1.6899c-0.43-0.42-0.99002-0.6501-1.59-0.6501h-0.75999c-2.07 0-3.75-1.6699-3.75-3.7199v-10.91c0-2.05 1.68-3.72 3.75-3.72h12c2.07 0 3.75 1.67 3.75 3.72v10.91c0 2.05-1.68 3.7199-3.75 3.7199h-0.76c-0.6 0-1.17 0.2301-1.59 0.6501l-1.71 1.6899c-0.53 0.53-1.24 0.8001-1.94 0.8001zm-6-20c-1.24 0-2.25 0.99997-2.25 2.22v10.91c0 1.23 1.01 2.2199 2.25 2.2199h0.75999c1 0 1.94 0.39 2.65 1.09l1.71 1.6901c0.49 0.48 1.28 0.48 1.77 0l1.71-1.6901c0.71-0.7 1.65-1.09 2.65-1.09h0.75c1.24 0 2.25-0.9999 2.25-2.2199v-10.91c0-1.23-1.01-2.22-2.25-2.22h-12z"/>
 <path d="m10.38 14.51h-2.68c-0.44 0-0.85-0.2101-1.11-0.5701-0.25-0.34-0.31001-0.7599-0.19001-1.1599 0.35-1.07 1.21-1.65 1.97-2.17 0.8-0.54 1.25-0.87998 1.25-1.46 0-0.52-0.42-0.94006-0.94-0.94006s-0.93999 0.42006-0.93999 0.94006c0 0.41-0.34 0.75-0.75 0.75s-0.75-0.34-0.75-0.75c0-1.34 1.09-2.4401 2.44-2.4401 1.35 0 2.44 1.0901 2.44 2.4401 0 1.41-1.06 2.13-1.91 2.71-0.53 0.36-1.03 0.7-1.28 1.15h2.44c0.41 0 0.75 0.34 0.75 0.75s-0.33 0.75-0.74 0.75z"/>
 <path d="m16.04 14.51c-0.41 0-0.75-0.34-0.75-0.75v-0.69h-1.96-0.01c-0.49 0-0.94-0.2599-1.19-0.6799-0.25-0.43-0.25-0.9601 0-1.3801 0.68-1.17 1.47-2.5 2.19-3.66 0.32-0.51 0.93-0.73995 1.5-0.57995 0.57 0.17 0.97 0.69003 0.96 1.29v3.5199h0.22c0.41 0 0.75 0.34 0.75 0.75s-0.34 0.75-0.75 0.75h-0.21v0.6901c0 0.41-0.33 0.7399-0.75 0.7399zm-0.75-5.87c-0.59 0.96-1.2 1.99-1.75 2.93h1.75v-2.93z"/>
</svg>
